images/icons/generic-blog.svg

<svg fill="none" height="24" viewBox="0 0 24 24" width="24" xmlns="http://www.w3.org/2000/svg" xmlns:xlink="http://www.w3.org/1999/xlink"><clipPath id="a"><path d="m0 0h24v24h-24z"/></clipPath><g clip-path="url(#a)"><path d="m6.66667 18.6667h6.66663c.3778 0 .6945-.1278.95-.3834.2556-.2555.3834-.5722.3834-.95 0-.3777-.1278-.6944-.3834-.95-.2555-.2555-.5722-.3833-.95-.3833h-6.66663c-.37778 0-.69445.1278-.95.3833-.25556.2556-.38334.5723-.38334.95 0 .3778.12778.6945.38334.95.25555.2556.57222.3834.95.3834zm0-5.3334h10.66663c.3778 0 .6945-.1277.95-.3833.2556-.2556.3834-.5722.3834-.95s-.1278-.6944-.3834-.95c-.2555-.2556-.5722-.3833-.95-.3833h-10.66663c-.37778 0-.69445.1277-.95.3833-.25556.2556-.38334.5722-.38334.95s.12778.6944.38334.95c.25555.2556.57222.3833.95.3833zm0-5.3333h10.66663c.3778 0 .6945-.12778.95-.38333.2556-.25556.3834-.57223.3834-.95 0-.37778-.1278-.69445-.3834-.95-.2555-.25556-.5722-.38334-.95-.38334h-10.66663c-.37778 0-.69445.12778-.95.38334-.25556.25555-.38334.57222-.38334.95 0 .37777.12778.69444.38334.95.25555.25555.57222.38333.95.38333zm-4 16c-.73334 0-1.36111-.2611-1.883337-.7833-.522222-.5223-.783333-1.15-.783333-1.8834v-18.66663c0-.73334.261111-1.36111.783333-1.883337.522227-.522222 1.149997-.783333 1.883337-.783333h18.66663c.7334 0 1.3611.261111 1.8834.783333.5222.522227.7833 1.149997.7833 1.883337v18.66663c0 .7334-.2611 1.3611-.7833 1.8834-.5223.5222-1.15.7833-1.8834.7833z" fill="#fff"/></g></svg>

<svg width="24" height="24" viewBox="0 0 24 24" fill="none" xmlns="http://www.w3.org/2000/svg">
<g clip-path="url(#clip0_1436_666)">
<path d="M6.66667 18.6667H13.3333C13.7111 18.6667 14.0278 18.5389 14.2833 18.2833C14.5389 18.0278 14.6667 17.7111 14.6667 17.3333C14.6667 16.9556 14.5389 16.6389 14.2833 16.3833C14.0278 16.1278 13.7111 16 13.3333 16H6.66667C6.28889 16 5.97222 16.1278 5.71667 16.3833C5.46111 16.6389 5.33333 16.9556 5.33333 17.3333C5.33333 17.7111 5.46111 18.0278 5.71667 18.2833C5.97222 18.5389 6.28889 18.6667 6.66667 18.6667ZM6.66667 13.3333H17.3333C17.7111 13.3333 18.0278 13.2056 18.2833 12.95C18.5389 12.6944 18.6667 12.3778 18.6667 12C18.6667 11.6222 18.5389 11.3056 18.2833 11.05C18.0278 10.7944 17.7111 10.6667 17.3333 10.6667H6.66667C6.28889 10.6667 5.97222 10.7944 5.71667 11.05C5.46111 11.3056 5.33333 11.6222 5.33333 12C5.33333 12.3778 5.46111 12.6944 5.71667 12.95C5.97222 13.2056 6.28889 13.3333 6.66667 13.3333ZM6.66667 8H17.3333C17.7111 8 18.0278 7.87222 18.2833 7.61667C18.5389 7.36111 18.6667 7.04444 18.6667 6.66667C18.6667 6.28889 18.5389 5.97222 18.2833 5.71667C18.0278 5.46111 17.7111 5.33333 17.3333 5.33333H6.66667C6.28889 5.33333 5.97222 5.46111 5.71667 5.71667C5.46111 5.97222 5.33333 6.28889 5.33333 6.66667C5.33333 7.04444 5.46111 7.36111 5.71667 7.61667C5.97222 7.87222 6.28889 8 6.66667 8ZM2.66667 24C1.93333 24 1.30556 23.7389 0.783333 23.2167C0.261111 22.6944 0 22.0667 0 21.3333V2.66667C0 1.93333 0.261111 1.30556 0.783333 0.783333C1.30556 0.261111 1.93333 0 2.66667 0H21.3333C22.0667 0 22.6944 0.261111 23.2167 0.783333C23.7389 1.30556 24 1.93333 24 2.66667V21.3333C24 22.0667 23.7389 22.6944 23.2167 23.2167C22.6944 23.7389 22.0667 24 21.3333 24H2.66667Z" fill="white"/>
</g>
<defs>
<clipPath id="clip0_1436_666">
<rect width="24" height="24" fill="white"/>
</clipPath>
</defs>
</svg>
